app/assets/images/Contenido/Adjuntar.svg

<svg fill="none" height="94" viewBox="0 0 94 94" width="94" xmlns="http://www.w3.org/2000/svg" xmlns:xlink="http://www.w3.org/1999/xlink"><filter id="a" color-interpolation-filters="sRGB" filterUnits="userSpaceOnUse" height="93.2222" width="93.2227" x="0" y="0"><feFlood flood-opacity="0" result="BackgroundImageFix"/><feColorMatrix in="SourceAlpha" result="hardAlpha" type="matrix" values="0 0 0 0 0 0 0 0 0 0 0 0 0 0 0 0 0 0 127 0"/><feMorphology in="SourceAlpha" operator="dilate" radius="2" result="effect1_dropShadow_49_4381"/><feOffset/><feGaussianBlur stdDeviation="5"/><feComposite in2="hardAlpha" operator="out"/><feColorMatrix type="matrix" values="0 0 0 0 0 0 0 0 0 0 0 0 0 0 0 0 0 0 0.15 0"/><feBlend in2="BackgroundImageFix" mode="normal" result="effect1_dropShadow_49_4381"/><feBlend in="SourceGraphic" in2="effect1_dropShadow_49_4381" mode="normal" result="shape"/></filter><g filter="url(#a)"><rect fill="#003778" height="69.2222" rx="34.6111" width="69.2222" x="12" y="12"/></g><path d="m33.975 44.3474c-.1193.121-.2616.217-.4186.2826s-.3256.0994-.4959.0994-.3389-.0338-.4959-.0994-.2993-.1616-.4186-.2826c-.2427-.2457-.3787-.5766-.3787-.9212s.136-.6754.3787-.9211l11.3131-11.3715c2.5511-1.9711 5.1172-2.9175 7.6721-2.7887 3.2189.1643 5.725 1.385 7.8522 3.3879 2.1684 2.0421 3.5715 4.9559 3.5715 8.4875 0 2.7104-.7916 5.0959-2.4629 7.2126l-15.9501 16.3516c-1.6132 1.316-3.4065 1.9525-5.3273 1.876-2.4386-.1008-4.2525-.8848-5.6012-2.212-1.5795-1.5511-2.5474-3.4569-2.5474-6.0198 0-2.0384.7072-3.9199 2.1666-5.6857l14.0386-14.2629c1.1255-1.1946 2.2266-1.9039 3.3521-2.0757.7512-.1177 1.5199-.0508 2.2392.1948s1.3673.6626 1.8876 1.2145c.9979 1.051 1.4256 2.3613 1.2755 3.8527-.1031 1.0174-.5214 1.9544-1.2905 2.8522l-12.9056 13.156c-.1185.1214-.2601.2181-.4166.2845-.1564.0663-.3245.1011-.4946.1021-.1701.0011-.3386-.0316-.4959-.0961-.1572-.0644-.3-.1594-.42-.2793-.2443-.2443-.3823-.5743-.3844-.9189s.1319-.6763.3732-.9235l12.8437-13.0887c.3751-.4387.5721-.8811.619-1.3514.075-.7467-.1051-1.2973-.5721-1.7883-.2359-.2514-.5306-.4409-.8579-.5516-.3272-.1107-.6769-.1393-1.0179-.083-.4559.069-1.0936.4816-1.8796 1.3141l-13.9805 14.1994c-1.0073 1.2226-1.495 2.5199-1.495 3.9367 0 1.7807.6471 3.0556 1.767 4.155.891.8774 2.1009 1.4 3.9017 1.4747 1.2756.0504 2.4573-.3696 3.4853-1.1984l15.7512-16.1462c1.2099-1.5437 1.8139-3.36 1.8139-5.4935 0-2.7663-1.0823-5.01-2.7537-6.5854-1.707-1.6091-3.6578-2.5573-6.2146-2.688-1.8908-.097-3.8735.6347-5.8469 2.1392z" fill="#fff"/></svg>

<svg width="94" height="94" viewBox="0 0 94 94" fill="none" xmlns="http://www.w3.org/2000/svg">
<g filter="url(#filter0_d_49_4381)">
<rect x="12" y="12" width="69.2222" height="69.2222" rx="34.6111" fill="#003778"/>
</g>
<path d="M33.975 44.3474C33.8557 44.4684 33.7134 44.5644 33.5564 44.63C33.3994 44.6956 33.2308 44.7294 33.0605 44.7294C32.8902 44.7294 32.7216 44.6956 32.5646 44.63C32.4076 44.5644 32.2653 44.4684 32.146 44.3474C31.9033 44.1017 31.7673 43.7708 31.7673 43.4262C31.7673 43.0816 31.9033 42.7508 32.146 42.5051L43.4591 31.1336C46.0102 29.1625 48.5763 28.2161 51.1312 28.3449C54.3501 28.5092 56.8562 29.7299 58.9834 31.7328C61.1518 33.7749 62.5549 36.6887 62.5549 40.2203C62.5549 42.9307 61.7633 45.3162 60.092 47.4329L44.1419 63.7845C42.5287 65.1005 40.7354 65.737 38.8146 65.6605C36.376 65.5597 34.5621 64.7757 33.2134 63.4485C31.6339 61.8974 30.666 59.9916 30.666 57.4287C30.666 55.3903 31.3732 53.5088 32.8326 51.743L46.8712 37.4801C47.9967 36.2855 49.0978 35.5762 50.2233 35.4044C50.9745 35.2867 51.7432 35.3536 52.4625 35.5992C53.1818 35.8448 53.8298 36.2618 54.3501 36.8137C55.348 37.8647 55.7757 39.175 55.6256 40.6664C55.5225 41.6838 55.1042 42.6208 54.3351 43.5186L41.4295 56.6746C41.311 56.796 41.1694 56.8927 41.0129 56.9591C40.8565 57.0254 40.6884 57.0602 40.5183 57.0612C40.3482 57.0623 40.1797 57.0296 40.0224 56.9651C39.8652 56.9007 39.7224 56.8057 39.6024 56.6858C39.3581 56.4415 39.2201 56.1115 39.218 55.7669C39.2159 55.4223 39.3499 55.0906 39.5912 54.8434L52.4349 41.7547C52.81 41.316 53.007 40.8736 53.0539 40.4033C53.1289 39.6566 52.9488 39.106 52.4818 38.615C52.2459 38.3636 51.9512 38.1741 51.6239 38.0634C51.2967 37.9527 50.947 37.9241 50.606 37.9804C50.1501 38.0494 49.5124 38.462 48.7264 39.2945L34.7459 53.4939C33.7386 54.7165 33.2509 56.0138 33.2509 57.4306C33.2509 59.2113 33.898 60.4862 35.0179 61.5856C35.9089 62.463 37.1188 62.9856 38.9196 63.0603C40.1952 63.1107 41.3769 62.6907 42.4049 61.8619L58.1561 45.7157C59.366 44.172 59.97 42.3557 59.97 40.2222C59.97 37.4559 58.8877 35.2122 57.2163 33.6368C55.5093 32.0277 53.5585 31.0795 51.0017 30.9488C49.1109 30.8518 47.1282 31.5835 45.1548 33.088L33.975 44.3474Z" fill="white"/>
<defs>
<filter id="filter0_d_49_4381" x="0" y="0" width="93.2227" height="93.2222" filterUnits="userSpaceOnUse" color-interpolation-filters="sRGB">
<feFlood flood-opacity="0" result="BackgroundImageFix"/>
<feColorMatrix in="SourceAlpha" type="matrix" values="0 0 0 0 0 0 0 0 0 0 0 0 0 0 0 0 0 0 127 0" result="hardAlpha"/>
<feMorphology radius="2" operator="dilate" in="SourceAlpha" result="effect1_dropShadow_49_4381"/>
<feOffset/>
<feGaussianBlur stdDeviation="5"/>
<feComposite in2="hardAlpha" operator="out"/>
<feColorMatrix type="matrix" values="0 0 0 0 0 0 0 0 0 0 0 0 0 0 0 0 0 0 0.15 0"/>
<feBlend mode="normal" in2="BackgroundImageFix" result="effect1_dropShadow_49_4381"/>
<feBlend mode="normal" in="SourceGraphic" in2="effect1_dropShadow_49_4381" result="shape"/>
</filter>
</defs>
</svg>
